X: 15866
T: Grace's
R: hornpipe
M: 4/4
K: Gmajor
(3DEF|GABG ABce|dgfa g3 f|egcg dg B2|BAAG ADFA|
G2BG ABce|dgfa g3 f|edcB c2A2|DFAF G2:|
ga|bgd2 afdf|gece d2 (3def|ga (3gfe dBGB|cAAG A2 ga|
[1 bgd2 afdf|gece d2 (3def|ga (3gfe dBGB|ADFA G2:|
[2 G2BG ABce|dgfa g3 f|edcB c2A2|DFAF G2||

